X: 11642
T: Eileen Ni Riordain's
R: barndance
M: 4/4
K: Dmajor
|:D>E|F2 F>F G2 F>G|A2 D2 D2 D>E|F2 (3FFF G2 F>G|A>BA>F (3EFE D>E|
F2 (3FFF G2 F>G|A2 D2 D2 D>E|(3FFF G>F E2 D>E|D2 [A,2F2] D2:|
|:(3ABc|d2 d2 B2 B2|A>BA>G F2 D>F|A2 G>F E2- E>F|G2 F>E F>DFA|
d2 d2 B2 [B2d2]|A>BA>G F2- F>G|A2 G>F E>GF>E|D2 [A,2F2] D2:|

